X: 355
T: Railroading Through The Rockies
C:Woodshed AllStars
B: canberra pickers and fiddlers
B: tunes
M:C
L:1/8
R: reel
Q: 1/4=100
K:D
V:1 
v(^G2 |\
"D"A2)A2 (A=c)AG | FD2uD- D3(vF | "A"E2)A,2 A,[EA,]A,A, | EuA,2uA,- A,2vA2- |\
"D"A2A2 (A=c)AG | FD2uD- D3(vF | "A"E2)A,2 [EA,]A,A,2 | "D"D6 ||
FG |\
"D"A2FG (A=c)AG | FD2uD- D4 | "A"A4 A3F | GE2uE- E2A2- |\
"D"A2A2 (A=c)AG | FD2uD- D3(F | "A"E2)[E2A,2] [EA,][EA,]A,2 | "D"D6 (3(vABc ||
|:\
"D"d2)de (fe)d2 | "G"(ued)ef (gf)e2 | "D"d2de (fe)d2 | "A"e(cB)(c A2) (3(vABc |\
"D"d2)de (fe)d2 | ("G"ued)e(f g2)ga | "A"b2ag (ed)c2 | "D"d4 :|
% abcbook-tune_id 67ab6bc53cdbd65192502010
% abcbook-tune_composer_id 
% abcbook-link-0 https://www.youtube.com/watch?v=W6G_kS2sqTY
% abcbook-link-title-0 Railroading Through the Rockies
% abcbook-boost 0
% abcbook-difficulty 0
% abcbook-tags old time tunes
% abcbook-tablature 
% abcbook-transpose 
% abcbook-tuning GDAE
% abcbook-lastupdated 1739287628971
% abcbook-src-url 
% abcbook-soundfonts 
% abcbook-repeats 1
